X: 29400
T: Nickie McAuliffe's
R: jig
M: 6/8
K: Amixolydian
e2c dcA|AGE GED|Aaa agf|gec dcd|
e2c dcA|AGE GED|G3 e2c|dcA A3:|
aea gec|ded cAF|GBd gec|ded cAF|
GBd ged|eAB cde|g3 e2c|dcA A3:|

